img/svg/tiktok-hover.svg

<svg width="48" height="48" viewBox="0 0 48 48" fill="none" xmlns="http://www.w3.org/2000/svg">
<path d="M34.3529 17.3269C37.4396 19.5413 41.221 20.8442 45.305 20.8442V12.9572C44.5321 12.9574 43.7612 12.8765 43.005 12.7157V18.9239C38.9213 18.9239 35.1404 17.621 32.0529 15.4068V31.5017C32.0529 39.5533 25.5491 46.0798 17.5267 46.0798C14.5333 46.0798 11.7511 45.1716 9.43994 43.6141C12.0778 46.3208 15.7564 48 19.8262 48C27.8491 48 34.3533 41.4734 34.3533 33.4215V17.3269H34.3529ZM37.1902 9.36999C35.6128 7.64045 34.577 5.40535 34.3529 2.93435V1.91992H32.1733C32.722 5.06056 34.5933 7.74374 37.1902 9.36999ZM14.5141 37.4356C13.6328 36.2759 13.1565 34.8572 13.1586 33.3985C13.1586 29.716 16.1334 26.7302 19.8035 26.7302C20.4875 26.7301 21.1674 26.8352 21.8192 27.0427V18.9795C21.0575 18.8748 20.2887 18.8303 19.5202 18.8466V25.1226C18.8679 24.915 18.1877 24.8096 17.5035 24.8103C13.8334 24.8103 10.8588 27.7957 10.8588 31.4787C10.8588 34.0828 12.3457 36.3373 14.5141 37.4356Z" fill="#FF004F"/>
<path d="M32.0529 15.4066C35.1404 17.6208 38.9213 18.9237 43.005 18.9237V12.7156C40.7255 12.2283 38.7075 11.0328 37.1903 9.36999C34.5931 7.74358 32.722 5.0604 32.1733 1.91992H26.4482V33.4212C26.4352 37.0936 23.4655 40.0672 19.8032 40.0672C17.6451 40.0672 15.7279 39.0348 14.5136 37.4356C12.3454 36.3373 10.8585 34.0826 10.8585 31.4788C10.8585 27.7962 13.8331 24.8104 17.5032 24.8104C18.2064 24.8104 18.8842 24.9203 19.5199 25.1228V18.8468C11.6384 19.0102 5.2998 25.473 5.2998 33.4214C5.2998 37.3892 6.87827 40.9861 9.44013 43.6143C11.7513 45.1716 14.5335 46.08 17.5268 46.08C25.5494 46.08 32.0531 39.5531 32.0531 31.5017V15.4066H32.0529Z" fill="black"/>
<path d="M43.0051 12.7156V11.037C40.9495 11.0401 38.9343 10.4624 37.1903 9.36987C38.7342 11.0661 40.7671 12.2357 43.0051 12.7156ZM32.1734 1.91997C32.1211 1.61982 32.0809 1.3177 32.053 1.01443V0H24.148V31.5016C24.1354 35.1735 21.1658 38.1471 17.5033 38.1471C16.428 38.1471 15.4128 37.891 14.5137 37.4358C15.7279 39.0349 17.6452 40.0671 19.8033 40.0671C23.4652 40.0671 26.4354 37.0938 26.4482 33.4214V1.91997H32.1734ZM19.5203 18.8468V17.0598C18.8598 16.9692 18.1938 16.9237 17.5271 16.924C9.50383 16.9239 3 23.4508 3 31.5016C3 36.5491 5.55612 40.9974 9.44034 43.614C6.87848 40.986 5.30002 37.3889 5.30002 33.4213C5.30002 25.473 11.6385 19.0102 19.5203 18.8468Z" fill="#00F2EA"/>
</svg>

<svg width="48" height="48" viewBox="0 0 48 48" fill="none" xmlns="http://www.w3.org/2000/svg"><path d="M34.353 17.327a18.724 18.724 0 0010.952 3.517v-7.887c-.773 0-1.544-.08-2.3-.241v6.208a18.727 18.727 0 01-10.952-3.517v16.095c0 8.051-6.504 14.578-14.526 14.578a14.42 14.42 0 01-8.087-2.466A14.457 14.457 0 0019.826 48c8.023 0 14.527-6.527 14.527-14.578V17.327zM37.19 9.37a11.012 11.012 0 01-2.837-6.436V1.92h-2.18a11.043 11.043 0 005.017 7.45zM14.514 37.436a6.657 6.657 0 01-1.355-4.038c0-3.682 2.974-6.668 6.644-6.668.684 0 1.364.105 2.016.313V18.98c-.761-.105-1.53-.15-2.299-.133v6.276a6.627 6.627 0 00-2.017-.313c-3.67 0-6.644 2.986-6.644 6.669a6.67 6.67 0 003.655 5.957z" fill="#FF004F"/><path d="M32.053 15.407a18.727 18.727 0 0010.952 3.517v-6.208A10.984 10.984 0 0137.19 9.37a11.043 11.043 0 01-5.017-7.45h-5.725v31.5c-.013 3.673-2.983 6.646-6.645 6.646a6.627 6.627 0 01-5.29-2.631 6.67 6.67 0 01-3.655-5.957c0-3.683 2.975-6.669 6.645-6.669.703 0 1.381.11 2.017.313v-6.276C11.638 19.01 5.3 25.473 5.3 33.42c0 3.968 1.578 7.565 4.14 10.193a14.422 14.422 0 008.087 2.466c8.022 0 14.526-6.527 14.526-14.578V15.407z" fill="#000"/><path d="M43.005 12.716v-1.679A10.921 10.921 0 0137.19 9.37a10.975 10.975 0 005.815 3.346zM32.173 1.92c-.052-.3-.092-.602-.12-.906V0h-7.905v31.502c-.013 3.671-2.982 6.645-6.645 6.645a6.598 6.598 0 01-2.99-.711 6.627 6.627 0 005.29 2.631c3.662 0 6.632-2.973 6.645-6.646V1.92h5.725zM19.52 18.847V17.06a14.62 14.62 0 00-1.993-.136C9.504 16.924 3 23.451 3 31.502c0 5.047 2.556 9.495 6.44 12.112A14.555 14.555 0 015.3 33.421c0-7.948 6.339-14.41 14.22-14.574z" fill="#00F2EA"/></svg>
